X: 178
M: C|
L: 1/8
K: F
|:\
f2g2 a2ga | bagf e2c2 | dcBA G2c2 | A2F2 c4 |\
f2g2 a2ga | bagf e2c2 | dcBA G2c2 | A2F2- F4 :|
|:\
a2gf g2fe | defg e2c2 | dcBA G2c2 | A2F2- F4 :|

